images/icons1.svg

<svg aria-hidden="true" style="position: absolute; width: 0; height: 0; overflow: hidden;" version="1.1" xmlns="http://www.w3.org/2000/svg" xmlns:xlink="http://www.w3.org/1999/xlink">
<defs>
<symbol id="icon-menu" viewBox="0 0 32 32">
<path d="M6.4 11.734v-2.134h19.2v2.134h-19.2zM6.4 17.066h19.2v-2.133h-19.2v2.133zM6.4 22.4h19.2v-2.134h-19.2v2.134z"></path>
</symbol>
<symbol id="icon-close-button" viewBox="0 0 32 32">
<path d="M32 3.223l-3.223-3.223-12.777 12.777-12.777-12.777-3.223 3.223 12.777 12.777-12.777 12.777 3.223 3.223 12.777-12.777 12.777 12.777 3.223-3.223-12.777-12.777 12.777-12.777z"></path>
</symbol>
</defs>
</svg>

<svg xmlns="http://www.w3.org/2000/svg">
    <defs>
        <symbol id="icon-menu" viewBox="0 0 32 32">
            <path d="M6.4 11.734V9.6h19.2v2.134H6.4zm0 5.332h19.2v-2.133H6.4v2.133zm0 5.334h19.2v-2.134H6.4V22.4z" />
        </symbol>
        <symbol id="icon-close-button" viewBox="0 0 32 32">
            <path
                d="M32 3.223 28.777 0 16 12.777 3.223 0 0 3.223 12.777 16 0 28.777 3.223 32 16 19.223 28.777 32 32 28.777 19.223 16 32 3.223z" />
        </symbol>
    </defs>
</svg>
